X: 37560
T: Small Hills Of Offaly, The
R: reel
M: 4/4
K: Dmajor
|:d2 Af dBAF|A2 EA cege|d2Af dBAF|EFGE FD D2|
d2 Af dBAF|A2EA cege|d2 Af dBAF|EAGE FD D2:|
|:dcdf a3f|eage cAeA|dcdf a3f|eage fddA|
defg a3f|eage cAGA|((3Bcd) ed cAGE|FAGE D2z2:|

